src/theme/img/local_warning_icon.svg

<svg width="24" height="28" viewBox="0 0 24 28" xmlns="http://www.w3.org/2000/svg">
  <g stroke="#D72416" stroke-width="2" fill="none" fill-rule="evenodd">
    <path d="M23 1v22h-7.4142136L12 26.5857864 8.41421356 23H1V1h22Z" fill="#FFF"/>
    <path d="M11.7803276 18.4804666c.3051115-.0814518.3800046-.0594455.4387131-.0006316.0592358.0593482.0814519.1349021.0814519.2203817 0 .0847297-.0220064.1596229-.0808202.2183314C12.1603242 18.9777839 12.0847703 19 11.9992906 19c-.0847297 0-.1596228-.0220064-.2183313-.0808202-.0592358-.0593482-.0814519-.1349021-.0814519-.2203818 0-.0847297.0220064-.1596228.0808202-.2183314Z" fill="#D72416"/>
    <path d="m11.82 5.43.364532 7.9704433H11.82V5.43Z" fill="#FFF"/>
  </g>
</svg>

<?xml version="1.0" encoding="UTF-8"?>
<svg width="24px" height="28px" viewBox="0 0 24 28" version="1.1" xmlns="http://www.w3.org/2000/svg" xmlns:xlink="http://www.w3.org/1999/xlink">
    <title>6B48FEB3-D4DE-4E8D-9DB4-236757B4EBDE</title>
    <g id="Squat-laskuri" stroke="none" stroke-width="1" fill="none" fill-rule="evenodd">
        <g id="colors_and_typography" transform="translate(-626, -1470)" stroke="#D72416" stroke-width="2">
            <g id="local_warning_icon" transform="translate(626, 1470)">
                <path d="M23,1 L23,23 L15.5857864,23 L12,26.5857864 L8.41421356,23 L1,23 L1,1 L23,1 Z" id="Combined-Shape" fill="#FFFFFF"></path>
                <path d="M11.7803276,18.4804666 C12.0854391,18.3990148 12.1603322,18.4210211 12.2190407,18.479835 C12.2782765,18.5391832 12.3004926,18.6147371 12.3004926,18.7002167 C12.3004926,18.7849464 12.2784862,18.8598396 12.2196724,18.9185481 C12.1603242,18.9777839 12.0847703,19 11.9992906,19 C11.9145609,19 11.8396678,18.9779936 11.7809593,18.9191798 C11.7217235,18.8598316 11.6995074,18.7842777 11.6995074,18.698798 C11.6995074,18.6140683 11.7215138,18.5391752 11.7803276,18.4804666 Z" id="Path" fill="#D72416"></path>
                <path d="M11.82,5.43 L12.184532,13.4004433 L11.82,13.4004433 L11.82,5.43 Z" id="Path" fill="#FFFFFF"></path>
            </g>
        </g>
    </g>
</svg>
